X: 3359
M: C
L: 1/8
K: F
c2 |\
cegb agfe | gfed cdcB |\
cegb agfe | g2f2 f2 :|
|: (ef) |\
gece gece | afcf afcf |\
gece g2(ga) | gfed c2(c=B) |\
cege cege | cfaf cfaf |\
bagf efge | f2a2 f2 :|


